X: 7673
T: Coleman's Cross
R: reel
M: 4/4
K: Gmajor
|:{a/}gf|ed{c/}BA ~G3E|DEGB AE ~E2|{A/}GEDB DEGA|1 {c/}BABd ez:|2 Bdgd ez2f||
~g3a gfed|Bdde d~B3|gz ag {a/} gfed|Be{a/}ed ez2f|
~g3e ~f3 d|(3efg ed edB^c|dBAF {A/} GFGA|{c/}BABde z||

